Newaita-dark/apps/16/gnome-power-statistics.svg

<svg height="16pt" viewBox="0 0 16 16" width="16pt" xmlns="http://www.w3.org/2000/svg" xmlns:xlink="http://www.w3.org/1999/xlink"><linearGradient id="a"><stop offset="0" stop-opacity=".313725"/><stop offset=".222222" stop-opacity=".27451"/><stop offset="1" stop-opacity="0"/></linearGradient><radialGradient id="b" cx="450.90894" cy="189.57936" gradientTransform="matrix(.00000009 -.0390662 -.0703192 -.00000005 25.403803 31.797668)" gradientUnits="userSpaceOnUse" r="21.166656" xlink:href="#a"/><radialGradient id="c" cx="450.90894" cy="189.57936" gradientTransform="matrix(-.00000009 .0390662 .0703192 .00000005 -6.881202 -3.763739)" gradientUnits="userSpaceOnUse" r="21.166656" xlink:href="#a"/><radialGradient id="d" cx="450.90894" cy="189.57936" gradientTransform="matrix(-.00000009 -.0390662 .0703192 -.00000005 -6.881202 31.797668)" gradientUnits="userSpaceOnUse" r="21.166656" xlink:href="#a"/><radialGradient id="e" cx="450.90894" cy="189.57936" gradientTransform="matrix(.00000009 .0390662 -.0703192 .00000005 25.403802 -3.763739)" gradientUnits="userSpaceOnUse" r="21.166656" xlink:href="#a"/><linearGradient id="f" gradientTransform="matrix(.00668003 0 0 .031253 5.736552 6.719394)" gradientUnits="userSpaceOnUse" x1="255.32306" x2="255.32304" y1="233.5" y2="254.66666"><stop offset="0" stop-opacity=".27451"/><stop offset="1" stop-opacity="0"/></linearGradient><linearGradient id="g" gradientUnits="userSpaceOnUse" x1="254" x2="254" y1="-168.66667" y2="233.5"><stop offset="0" stop-color="#616161"/><stop offset="1" stop-color="#424242"/></linearGradient><linearGradient id="h" gradientUnits="userSpaceOnUse" x1="7.938262" x2="7.938262" y1="1.44805256249" y2="14.0169675"><stop offset="0" stop-color="#90a4ae"/><stop offset="1" stop-color="#78909c"/></linearGradient><linearGradient id="i"><stop offset="0" stop-color="#ffa726"/><stop offset="1" stop-color="#ffb74d"/></linearGradient><linearGradient id="j" gradientUnits="userSpaceOnUse" x1="6.28445731249" x2="6.28445731249" xlink:href="#i" y1="14.0169675" y2="1.44805287502"/><linearGradient id="k" gradientUnits="userSpaceOnUse" x1="10.915111" x2="10.915111" xlink:href="#i" y1="14.0169685" y2="9.38631575001"/><linearGradient id="l" gradientUnits="userSpaceOnUse" x1="12.23815487502" x2="12.23815487502" y1="14.0169685" y2="8.063272"><stop offset="0" stop-color="#66bb6a"/><stop offset="1" stop-color="#81c784"/></linearGradient><linearGradient id="m" gradientUnits="userSpaceOnUse" x1="9.59206712498" x2="9.59206712498" y1="14.0169685" y2="10.70935912498"><stop offset="0" stop-color="#ef5350"/><stop offset="1" stop-color="#e57373"/></linearGradient><path d="m12.238281 14.015625h1.324219v-.660156h-1.324219zm0 0" fill="url(#b)"/><path d="m6.285156 14.015625h-1.324218v.664063h1.324218zm0 0" fill="url(#c)"/><path d="m6.285156 14.015625h-1.324218v-.660156h1.324218zm0 0" fill="url(#d)"/><path d="m12.238281 14.015625h1.324219v.664063h-1.324219zm0 0" fill="url(#e)"/><path d="m6.285156 13.851562h5.953125v.828126h-5.953125zm0 0" fill="url(#f)"/><path d="m253.975747-168.629428c111.114389 0 201.105795 89.991406 201.105795 201.105795 0 110.989401-89.991406 200.980807-201.105795 200.980807-110.989402 0-201.105796-89.991406-201.105796-200.980807 0-111.114389 90.116394-201.105795 201.105796-201.105795zm0 0" fill="url(#g)" stroke="#333" stroke-linecap="round" stroke-width="3" transform="matrix(.031253 0 0 .031253 0 6.719392)"/><path d="m1.652344 7.785156c.03125 3.457032 2.820312 6.230469 6.285156 6.230469s6.257812-2.773437 6.285156-6.230469c-5-3.730468-7 3.65625-12.570312 0zm0 0" fill="url(#h)"/><path d="m7.9375 13.976562c-3.480469 0-6.285156-2.804687-6.285156-6.285156 0-.019531 0-.042968 0-.0625.035156 3.453125 2.824218 6.222656 6.285156 6.222656s6.253906-2.769531 6.285156-6.222656v.0625c0 3.480469-2.804687 6.285156-6.285156 6.285156zm0 0" fill-opacity=".196078"/><path d="m7.9375 1.488281c-3.480469 0-6.285156 2.804688-6.285156 6.285157v.0625c.035156-3.453126 2.824218-6.222657 6.285156-6.222657s6.253906 2.769531 6.285156 6.222657c0-.019532 0-.042969 0-.0625 0-3.480469-2.804687-6.285157-6.285156-6.285157zm0 0" fill="#fff" fill-opacity=".392157"/><path d="m7.9375 1.402344c-3.507812 0-6.332031 2.824218-6.332031 6.332031 0 3.503906 2.824219 6.328125 6.332031 6.328125s6.332031-2.824219 6.332031-6.328125c0-3.507813-2.824219-6.332031-6.332031-6.332031zm0 .09375c3.457031 0 6.238281 2.78125 6.238281 6.238281 0 3.453125-2.78125 6.234375-6.238281 6.234375s-6.238281-2.78125-6.238281-6.234375c0-3.457031 2.78125-6.238281 6.238281-6.238281zm0 0" fill="#212121"/><path d="m5.621094 11.703125 4.964844-3.96875-1.984376-.664063 1.652344-3.308593-4.960937 3.972656 1.984375.660156zm0 0" fill="url(#j)" fill-rule="evenodd"/><path d="m10.253906 3.761719-4.960937 3.972656.292969.09375 4.390624-3.511719zm-1.511718 3.355469-.140626.285156 1.691407.5625.292969-.230469zm-1.605469 1.558593-1.515625 3.027344.277344-.222656 1.378906-2.753907zm0 0" fill="#fff" fill-opacity=".392157" fill-rule="evenodd"/><path d="m10.253906 4.09375-.414062.332031-1.238282 2.480469.210938.070312zm-4.523437 3.621094-.4375.347656 1.769531.589844.214844-.421875zm4.417969.203125-4.113282 3.289062-.414062.824219 4.964844-3.96875zm0 0" fill-opacity=".235294" fill-rule="evenodd"/><path d="m179.857824 159.46424 158.85983-126.987873-63.493937-21.247971 52.869952-105.86489-158.734842 127.112861 63.493937 21.122983zm0 0" fill="none" stroke="#212121" stroke-width="3" transform="matrix(.031253 0 0 .031253 0 6.719392)"/><path d="m10.585938 9.386719h.660156c.183594 0 .332031.148437.332031.332031v3.96875c0 .179688-.148437.328125-.332031.328125h-.660156c-.183594 0-.332032-.148437-.332032-.328125v-3.96875c0-.183594.148438-.332031.332032-.332031zm0 0" fill="url(#k)"/><path d="m11.90625 8.0625h.664062c.179688 0 .328126.148438.328126.332031v5.292969c0 .179688-.148438.328125-.328126.328125h-.664062c-.179688 0-.328125-.148437-.328125-.328125v-5.292969c0-.183593.148437-.332031.328125-.332031zm0 0" fill="url(#l)"/><path d="m9.261719 10.710938h.660156c.183594 0 .332031.148437.332031.328124v2.648438c0 .179688-.148437.328125-.332031.328125h-.660156c-.183594 0-.332031-.148437-.332031-.328125v-2.648438c0-.179687.148437-.328124.332031-.328124zm0 0" fill="url(#m)"/><path d="m10.585938 9.386719c-.183594 0-.332032.148437-.332032.332031v.164062c0-.183593.148438-.332031.332032-.332031h.660156c.183594 0 .332031.148438.332031.332031v-.164062c0-.183594-.148437-.332031-.332031-.332031zm0 0" fill="#fff" fill-opacity=".392157"/><path d="m11.90625 8.0625c-.183594 0-.328125.148438-.328125.332031v.164063c0-.183594.144531-.328125.328125-.328125h.664062c.183594 0 .328126.144531.328126.328125v-.164063c0-.183593-.144532-.332031-.328126-.332031zm0 0" fill="#fff" fill-opacity=".392157"/><path d="m9.261719 10.710938c-.183594 0-.332031.144531-.332031.328124v.167969c0-.183593.148437-.332031.332031-.332031h.660156c.183594 0 .332031.148438.332031.332031v-.167969c0-.183593-.148437-.328124-.332031-.328124zm0 0" fill="#fff" fill-opacity=".392157"/><path d="m11.246094 14.015625c.183594 0 .332031-.144531.332031-.328125v-.167969c0 .183594-.148437.332031-.332031.332031h-.660156c-.183594 0-.332032-.148437-.332032-.332031v.167969c0 .183594.148438.328125.332032.328125zm0 0" fill-opacity=".235294"/><path d="m9.921875 14.015625c.183594 0 .332031-.144531.332031-.328125v-.167969c0 .183594-.148437.332031-.332031.332031h-.660156c-.183594 0-.332031-.148437-.332031-.332031v.167969c0 .183594.148437.328125.332031.328125zm0 0" fill-opacity=".235294"/><path d="m12.570312 14.015625c.183594 0 .328126-.144531.328126-.328125v-.167969c0 .183594-.144532.332031-.328126.332031h-.664062c-.183594 0-.328125-.148437-.328125-.332031v.167969c0 .183594.144531.328125.328125.328125zm0 0" fill-opacity=".235294"/><g stroke-linecap="round" stroke-width="3"><path d="m338.717654 85.346318h21.122983c5.874439 0 10.623985 4.749547 10.623985 10.623986v126.987873c0 5.749451-4.749546 10.498997-10.623985 10.498997h-21.122983c-5.874439 0-10.623985-4.749546-10.623985-10.498997v-126.987873c0-5.874439 4.749546-10.623986 10.623985-10.623986zm0 0" fill="none" stroke="#212121" stroke-linejoin="round" transform="matrix(.031253 0 0 .031253 0 6.719392)"/><path d="m380.96362 42.975365h21.247971c5.749451 0 10.498997 4.749546 10.498997 10.623985v169.358827c0 5.749451-4.749546 10.498997-10.498997 10.498997h-21.247971c-5.749451 0-10.498998-4.749546-10.498998-10.498997v-169.358827c0-5.874439 4.749547-10.623985 10.498998-10.623985zm0 0" fill="none" stroke="#212121" stroke-linejoin="round" transform="matrix(.031253 0 0 .031253 0 6.719392)"/><path d="m296.3467 127.717272h21.122983c5.874439 0 10.623986 4.749547 10.623986 10.498998v84.741907c0 5.749451-4.749547 10.498997-10.623986 10.498997h-21.122983c-5.874439 0-10.623985-4.749546-10.623985-10.498997v-84.741907c0-5.749451 4.749546-10.498998 10.623985-10.498998zm0 0" fill="none" stroke="#212121" stroke-linejoin="round" transform="matrix(.031253 0 0 .031253 0 6.719392)"/></g></svg>

<?xml version="1.0" encoding="UTF-8"?>
<svg xmlns="http://www.w3.org/2000/svg" xmlns:xlink="http://www.w3.org/1999/xlink" width="16pt" height="16pt" viewBox="0 0 16 16" version="1.1">
<defs>
<radialGradient id="radial0" gradientUnits="userSpaceOnUse" cx="450.90894" cy="189.57936" fx="450.90894" fy="189.57936" r="21.166656" gradientTransform="matrix(0.0000000870852,-0.0390662,-0.0703192,-0.0000000507693,25.403803,31.797668)">
<stop offset="0" style="stop-color:rgb(0%,0%,0%);stop-opacity:0.313725;"/>
<stop offset="0.222222" style="stop-color:rgb(0%,0%,0%);stop-opacity:0.27451;"/>
<stop offset="1" style="stop-color:rgb(0%,0%,0%);stop-opacity:0;"/>
</radialGradient>
<radialGradient id="radial1" gradientUnits="userSpaceOnUse" cx="450.90894" cy="189.57936" fx="450.90894" fy="189.57936" r="21.166656" gradientTransform="matrix(-0.0000000870852,0.0390662,0.0703192,0.0000000507693,-6.881202,-3.763739)">
<stop offset="0" style="stop-color:rgb(0%,0%,0%);stop-opacity:0.313725;"/>
<stop offset="0.222222" style="stop-color:rgb(0%,0%,0%);stop-opacity:0.27451;"/>
<stop offset="1" style="stop-color:rgb(0%,0%,0%);stop-opacity:0;"/>
</radialGradient>
<radialGradient id="radial2" gradientUnits="userSpaceOnUse" cx="450.90894" cy="189.57936" fx="450.90894" fy="189.57936" r="21.166656" gradientTransform="matrix(-0.0000000870852,-0.0390662,0.0703192,-0.0000000507693,-6.881202,31.797668)">
<stop offset="0" style="stop-color:rgb(0%,0%,0%);stop-opacity:0.313725;"/>
<stop offset="0.222222" style="stop-color:rgb(0%,0%,0%);stop-opacity:0.27451;"/>
<stop offset="1" style="stop-color:rgb(0%,0%,0%);stop-opacity:0;"/>
</radialGradient>
<radialGradient id="radial3" gradientUnits="userSpaceOnUse" cx="450.90894" cy="189.57936" fx="450.90894" fy="189.57936" r="21.166656" gradientTransform="matrix(0.0000000870852,0.0390662,-0.0703192,0.0000000507693,25.403802,-3.763739)">
<stop offset="0" style="stop-color:rgb(0%,0%,0%);stop-opacity:0.313725;"/>
<stop offset="0.222222" style="stop-color:rgb(0%,0%,0%);stop-opacity:0.27451;"/>
<stop offset="1" style="stop-color:rgb(0%,0%,0%);stop-opacity:0;"/>
</radialGradient>
<linearGradient id="linear0" gradientUnits="userSpaceOnUse" x1="255.32306" y1="233.5" x2="255.32304" y2="254.66666" gradientTransform="matrix(0.00668003,0,0,0.031253,5.736552,6.719394)">
<stop offset="0" style="stop-color:rgb(0%,0%,0%);stop-opacity:0.27451;"/>
<stop offset="1" style="stop-color:rgb(0%,0%,0%);stop-opacity:0;"/>
</linearGradient>
<linearGradient id="linear1" gradientUnits="userSpaceOnUse" x1="254" y1="-168.66667" x2="254" y2="233.5" >
<stop offset="0" style="stop-color:rgb(38.039216%,38.039216%,38.039216%);stop-opacity:1;"/>
<stop offset="1" style="stop-color:rgb(25.882353%,25.882353%,25.882353%);stop-opacity:1;"/>
</linearGradient>
<linearGradient id="linear2" gradientUnits="userSpaceOnUse" x1="254" y1="-168.66667" x2="254" y2="233.5" gradientTransform="matrix(0.031253,0,0,0.031253,0,6.719392)">
<stop offset="0" style="stop-color:rgb(56.470588%,64.313725%,68.235294%);stop-opacity:1;"/>
<stop offset="1" style="stop-color:rgb(47.058824%,56.470588%,61.176471%);stop-opacity:1;"/>
</linearGradient>
<linearGradient id="linear3" gradientUnits="userSpaceOnUse" x1="201.08333" y1="233.5" x2="201.08333" y2="-168.66666" gradientTransform="matrix(0.031253,0,0,0.031253,0,6.719392)">
<stop offset="0" style="stop-color:rgb(100%,65.490196%,14.901961%);stop-opacity:1;"/>
<stop offset="1" style="stop-color:rgb(100%,71.764706%,30.196078%);stop-opacity:1;"/>
</linearGradient>
<linearGradient id="linear4" gradientUnits="userSpaceOnUse" x1="381" y1="233.5" x2="381" y2="85.333336" gradientTransform="matrix(0.031253,0,0,0.031253,-0.992282,6.719393)">
<stop offset="0" style="stop-color:rgb(100%,65.490196%,14.901961%);stop-opacity:1;"/>
<stop offset="1" style="stop-color:rgb(100%,71.764706%,30.196078%);stop-opacity:1;"/>
</linearGradient>
<linearGradient id="linear5" gradientUnits="userSpaceOnUse" x1="423.33334" y1="233.5" x2="423.33334" y2="43" gradientTransform="matrix(0.031253,0,0,0.031253,-0.992282,6.719393)">
<stop offset="0" style="stop-color:rgb(40%,73.333333%,41.568627%);stop-opacity:1;"/>
<stop offset="1" style="stop-color:rgb(50.588235%,78.039216%,51.764706%);stop-opacity:1;"/>
</linearGradient>
<linearGradient id="linear6" gradientUnits="userSpaceOnUse" x1="338.66666" y1="233.5" x2="338.66666" y2="127.66666" gradientTransform="matrix(0.031253,0,0,0.031253,-0.992282,6.719393)">
<stop offset="0" style="stop-color:rgb(93.72549%,32.54902%,31.372549%);stop-opacity:1;"/>
<stop offset="1" style="stop-color:rgb(89.803922%,45.098039%,45.098039%);stop-opacity:1;"/>
</linearGradient>
</defs>
<g id="surface1">
<path style=" stroke:none;fill-rule:nonzero;fill:url(#radial0);" d="M 12.238281 14.015625 L 13.5625 14.015625 L 13.5625 13.355469 L 12.238281 13.355469 Z M 12.238281 14.015625 "/>
<path style=" stroke:none;fill-rule:nonzero;fill:url(#radial1);" d="M 6.285156 14.015625 L 4.960938 14.015625 L 4.960938 14.679688 L 6.285156 14.679688 Z M 6.285156 14.015625 "/>
<path style=" stroke:none;fill-rule:nonzero;fill:url(#radial2);" d="M 6.285156 14.015625 L 4.960938 14.015625 L 4.960938 13.355469 L 6.285156 13.355469 Z M 6.285156 14.015625 "/>
<path style=" stroke:none;fill-rule:nonzero;fill:url(#radial3);" d="M 12.238281 14.015625 L 13.5625 14.015625 L 13.5625 14.679688 L 12.238281 14.679688 Z M 12.238281 14.015625 "/>
<path style=" stroke:none;fill-rule:nonzero;fill:url(#linear0);" d="M 6.285156 13.851562 L 12.238281 13.851562 L 12.238281 14.679688 L 6.285156 14.679688 Z M 6.285156 13.851562 "/>
<path style="fill-rule:nonzero;fill:url(#linear1);stroke-width:3;stroke-linecap:round;stroke-linejoin:miter;stroke:rgb(20%,20%,20%);stroke-opacity:1;stroke-miterlimit:4;" d="M 253.975747 -168.629428 C 365.090136 -168.629428 455.081542 -78.638022 455.081542 32.476367 C 455.081542 143.465768 365.090136 233.457174 253.975747 233.457174 C 142.986345 233.457174 52.869951 143.465768 52.869951 32.476367 C 52.869951 -78.638022 142.986345 -168.629428 253.975747 -168.629428 Z M 253.975747 -168.629428 " transform="matrix(0.031253,0,0,0.031253,0,6.719392)"/>
<path style=" stroke:none;fill-rule:nonzero;fill:url(#linear2);" d="M 1.652344 7.785156 C 1.683594 11.242188 4.472656 14.015625 7.9375 14.015625 C 11.402344 14.015625 14.195312 11.242188 14.222656 7.785156 C 9.222656 4.054688 7.222656 11.441406 1.652344 7.785156 Z M 1.652344 7.785156 "/>
<path style=" stroke:none;fill-rule:nonzero;fill:rgb(0%,0%,0%);fill-opacity:0.196078;" d="M 7.9375 13.976562 C 4.457031 13.976562 1.652344 11.171875 1.652344 7.691406 C 1.652344 7.671875 1.652344 7.648438 1.652344 7.628906 C 1.6875 11.082031 4.476562 13.851562 7.9375 13.851562 C 11.398438 13.851562 14.191406 11.082031 14.222656 7.628906 C 14.222656 7.648438 14.222656 7.671875 14.222656 7.691406 C 14.222656 11.171875 11.417969 13.976562 7.9375 13.976562 Z M 7.9375 13.976562 "/>
<path style=" stroke:none;fill-rule:nonzero;fill:rgb(100%,100%,100%);fill-opacity:0.392157;" d="M 7.9375 1.488281 C 4.457031 1.488281 1.652344 4.292969 1.652344 7.773438 C 1.652344 7.792969 1.652344 7.816406 1.652344 7.835938 C 1.6875 4.382812 4.476562 1.613281 7.9375 1.613281 C 11.398438 1.613281 14.191406 4.382812 14.222656 7.835938 C 14.222656 7.816406 14.222656 7.792969 14.222656 7.773438 C 14.222656 4.292969 11.417969 1.488281 7.9375 1.488281 Z M 7.9375 1.488281 "/>
<path style=" stroke:none;fill-rule:nonzero;fill:rgb(12.941176%,12.941176%,12.941176%);fill-opacity:1;" d="M 7.9375 1.402344 C 4.429688 1.402344 1.605469 4.226562 1.605469 7.734375 C 1.605469 11.238281 4.429688 14.0625 7.9375 14.0625 C 11.445312 14.0625 14.269531 11.238281 14.269531 7.734375 C 14.269531 4.226562 11.445312 1.402344 7.9375 1.402344 Z M 7.9375 1.496094 C 11.394531 1.496094 14.175781 4.277344 14.175781 7.734375 C 14.175781 11.1875 11.394531 13.96875 7.9375 13.96875 C 4.480469 13.96875 1.699219 11.1875 1.699219 7.734375 C 1.699219 4.277344 4.480469 1.496094 7.9375 1.496094 Z M 7.9375 1.496094 "/>
<path style=" stroke:none;fill-rule:evenodd;fill:url(#linear3);" d="M 5.621094 11.703125 L 10.585938 7.734375 L 8.601562 7.070312 L 10.253906 3.761719 L 5.292969 7.734375 L 7.277344 8.394531 Z M 5.621094 11.703125 "/>
<path style=" stroke:none;fill-rule:evenodd;fill:rgb(100%,100%,100%);fill-opacity:0.392157;" d="M 10.253906 3.761719 L 5.292969 7.734375 L 5.585938 7.828125 L 9.976562 4.316406 Z M 8.742188 7.117188 L 8.601562 7.402344 L 10.292969 7.964844 L 10.585938 7.734375 Z M 7.136719 8.675781 L 5.621094 11.703125 L 5.898438 11.480469 L 7.277344 8.726562 Z M 7.136719 8.675781 "/>
<path style=" stroke:none;fill-rule:evenodd;fill:rgb(0%,0%,0%);fill-opacity:0.235294;" d="M 10.253906 4.09375 L 9.839844 4.425781 L 8.601562 6.90625 L 8.8125 6.976562 Z M 5.730469 7.714844 L 5.292969 8.0625 L 7.0625 8.652344 L 7.277344 8.230469 Z M 10.148438 7.917969 L 6.035156 11.207031 L 5.621094 12.03125 L 10.585938 8.0625 Z M 10.148438 7.917969 "/>
<path style="fill:none;stroke-width:3;stroke-linecap:butt;stroke-linejoin:miter;stroke:rgb(12.941176%,12.941176%,12.941176%);stroke-opacity:1;stroke-miterlimit:4;" d="M 179.857824 159.46424 L 338.717654 32.476367 L 275.223717 11.228396 L 328.093669 -94.636494 L 169.358827 32.476367 L 232.852764 53.59935 Z M 179.857824 159.46424 " transform="matrix(0.031253,0,0,0.031253,0,6.719392)"/>
<path style=" stroke:none;fill-rule:nonzero;fill:url(#linear4);" d="M 10.585938 9.386719 L 11.246094 9.386719 C 11.429688 9.386719 11.578125 9.535156 11.578125 9.71875 L 11.578125 13.6875 C 11.578125 13.867188 11.429688 14.015625 11.246094 14.015625 L 10.585938 14.015625 C 10.402344 14.015625 10.253906 13.867188 10.253906 13.6875 L 10.253906 9.71875 C 10.253906 9.535156 10.402344 9.386719 10.585938 9.386719 Z M 10.585938 9.386719 "/>
<path style=" stroke:none;fill-rule:nonzero;fill:url(#linear5);" d="M 11.90625 8.0625 L 12.570312 8.0625 C 12.75 8.0625 12.898438 8.210938 12.898438 8.394531 L 12.898438 13.6875 C 12.898438 13.867188 12.75 14.015625 12.570312 14.015625 L 11.90625 14.015625 C 11.726562 14.015625 11.578125 13.867188 11.578125 13.6875 L 11.578125 8.394531 C 11.578125 8.210938 11.726562 8.0625 11.90625 8.0625 Z M 11.90625 8.0625 "/>
<path style=" stroke:none;fill-rule:nonzero;fill:url(#linear6);" d="M 9.261719 10.710938 L 9.921875 10.710938 C 10.105469 10.710938 10.253906 10.859375 10.253906 11.039062 L 10.253906 13.6875 C 10.253906 13.867188 10.105469 14.015625 9.921875 14.015625 L 9.261719 14.015625 C 9.078125 14.015625 8.929688 13.867188 8.929688 13.6875 L 8.929688 11.039062 C 8.929688 10.859375 9.078125 10.710938 9.261719 10.710938 Z M 9.261719 10.710938 "/>
<path style=" stroke:none;fill-rule:nonzero;fill:rgb(100%,100%,100%);fill-opacity:0.392157;" d="M 10.585938 9.386719 C 10.402344 9.386719 10.253906 9.535156 10.253906 9.71875 L 10.253906 9.882812 C 10.253906 9.699219 10.402344 9.550781 10.585938 9.550781 L 11.246094 9.550781 C 11.429688 9.550781 11.578125 9.699219 11.578125 9.882812 L 11.578125 9.71875 C 11.578125 9.535156 11.429688 9.386719 11.246094 9.386719 Z M 10.585938 9.386719 "/>
<path style=" stroke:none;fill-rule:nonzero;fill:rgb(100%,100%,100%);fill-opacity:0.392157;" d="M 11.90625 8.0625 C 11.722656 8.0625 11.578125 8.210938 11.578125 8.394531 L 11.578125 8.558594 C 11.578125 8.375 11.722656 8.230469 11.90625 8.230469 L 12.570312 8.230469 C 12.753906 8.230469 12.898438 8.375 12.898438 8.558594 L 12.898438 8.394531 C 12.898438 8.210938 12.753906 8.0625 12.570312 8.0625 Z M 11.90625 8.0625 "/>
<path style=" stroke:none;fill-rule:nonzero;fill:rgb(100%,100%,100%);fill-opacity:0.392157;" d="M 9.261719 10.710938 C 9.078125 10.710938 8.929688 10.855469 8.929688 11.039062 L 8.929688 11.207031 C 8.929688 11.023438 9.078125 10.875 9.261719 10.875 L 9.921875 10.875 C 10.105469 10.875 10.253906 11.023438 10.253906 11.207031 L 10.253906 11.039062 C 10.253906 10.855469 10.105469 10.710938 9.921875 10.710938 Z M 9.261719 10.710938 "/>
<path style=" stroke:none;fill-rule:nonzero;fill:rgb(0%,0%,0%);fill-opacity:0.235294;" d="M 11.246094 14.015625 C 11.429688 14.015625 11.578125 13.871094 11.578125 13.6875 L 11.578125 13.519531 C 11.578125 13.703125 11.429688 13.851562 11.246094 13.851562 L 10.585938 13.851562 C 10.402344 13.851562 10.253906 13.703125 10.253906 13.519531 L 10.253906 13.6875 C 10.253906 13.871094 10.402344 14.015625 10.585938 14.015625 Z M 11.246094 14.015625 "/>
<path style=" stroke:none;fill-rule:nonzero;fill:rgb(0%,0%,0%);fill-opacity:0.235294;" d="M 9.921875 14.015625 C 10.105469 14.015625 10.253906 13.871094 10.253906 13.6875 L 10.253906 13.519531 C 10.253906 13.703125 10.105469 13.851562 9.921875 13.851562 L 9.261719 13.851562 C 9.078125 13.851562 8.929688 13.703125 8.929688 13.519531 L 8.929688 13.6875 C 8.929688 13.871094 9.078125 14.015625 9.261719 14.015625 Z M 9.921875 14.015625 "/>
<path style=" stroke:none;fill-rule:nonzero;fill:rgb(0%,0%,0%);fill-opacity:0.235294;" d="M 12.570312 14.015625 C 12.753906 14.015625 12.898438 13.871094 12.898438 13.6875 L 12.898438 13.519531 C 12.898438 13.703125 12.753906 13.851562 12.570312 13.851562 L 11.90625 13.851562 C 11.722656 13.851562 11.578125 13.703125 11.578125 13.519531 L 11.578125 13.6875 C 11.578125 13.871094 11.722656 14.015625 11.90625 14.015625 Z M 12.570312 14.015625 "/>
<path style="fill:none;stroke-width:3;stroke-linecap:round;stroke-linejoin:round;stroke:rgb(12.941176%,12.941176%,12.941176%);stroke-opacity:1;stroke-miterlimit:4;" d="M 338.717654 85.346318 L 359.840637 85.346318 C 365.715076 85.346318 370.464622 90.095865 370.464622 95.970304 L 370.464622 222.958177 C 370.464622 228.707628 365.715076 233.457174 359.840637 233.457174 L 338.717654 233.457174 C 332.843215 233.457174 328.093669 228.707628 328.093669 222.958177 L 328.093669 95.970304 C 328.093669 90.095865 332.843215 85.346318 338.717654 85.346318 Z M 338.717654 85.346318 " transform="matrix(0.031253,0,0,0.031253,0,6.719392)"/>
<path style="fill:none;stroke-width:3;stroke-linecap:round;stroke-linejoin:round;stroke:rgb(12.941176%,12.941176%,12.941176%);stroke-opacity:1;stroke-miterlimit:4;" d="M 380.96362 42.975365 L 402.211591 42.975365 C 407.961042 42.975365 412.710588 47.724911 412.710588 53.59935 L 412.710588 222.958177 C 412.710588 228.707628 407.961042 233.457174 402.211591 233.457174 L 380.96362 233.457174 C 375.214169 233.457174 370.464622 228.707628 370.464622 222.958177 L 370.464622 53.59935 C 370.464622 47.724911 375.214169 42.975365 380.96362 42.975365 Z M 380.96362 42.975365 " transform="matrix(0.031253,0,0,0.031253,0,6.719392)"/>
<path style="fill:none;stroke-width:3;stroke-linecap:round;stroke-linejoin:round;stroke:rgb(12.941176%,12.941176%,12.941176%);stroke-opacity:1;stroke-miterlimit:4;" d="M 296.3467 127.717272 L 317.469683 127.717272 C 323.344122 127.717272 328.093669 132.466819 328.093669 138.21627 L 328.093669 222.958177 C 328.093669 228.707628 323.344122 233.457174 317.469683 233.457174 L 296.3467 233.457174 C 290.472261 233.457174 285.722715 228.707628 285.722715 222.958177 L 285.722715 138.21627 C 285.722715 132.466819 290.472261 127.717272 296.3467 127.717272 Z M 296.3467 127.717272 " transform="matrix(0.031253,0,0,0.031253,0,6.719392)"/>
</g>
</svg>
